icons/desktop/16/svg/hammer-16.svg

<svg width="16" height="16" viewBox="0 0 16 16" fill="none" xmlns="http://www.w3.org/2000/svg">
<path fill-rule="evenodd" clip-rule="evenodd" d="M6.25098 1.00083C7.53013 1.00389 8.72942 1.06522 9.83594 1.16294C10.5325 1.22449 11.162 1.55687 11.6172 2.06236L11.7754 2.23814H13.5V1.99986C13.5001 1.58576 13.8359 1.24986 14.25 1.24986C14.6641 1.24986 14.9999 1.58576 15 1.99986V7.49986C15 7.91407 14.6642 8.24986 14.25 8.24986C13.8358 8.24986 13.5 7.91407 13.5 7.49986V6.99693H11.9463L10.8447 7.64537C10.7789 7.68409 10.7072 7.71314 10.6328 7.73033C10.5872 7.74088 10.5398 7.74834 10.4922 7.75865L10.4785 13.7547C10.4755 14.9961 9.46906 15.9999 8.22852 15.9999H7.77148C6.60839 15.9996 5.65172 15.1163 5.53418 13.9842L5.52148 13.7547L5.50488 7.54966L4.55957 6.99693H1.75C1.33579 6.99693 1 6.66114 1 6.24693V4.78697C1.00007 2.77931 2.57341 1.10367 4.59375 1.02818L5.41113 1.00572C5.68718 1.00088 5.96717 0.999829 6.25098 1.00083ZM7.02148 13.7508L7.02637 13.828C7.06577 14.2055 7.38459 14.4996 7.77148 14.4999H8.22852C8.64193 14.4999 8.97751 14.1654 8.97852 13.7508L8.99219 7.97251C8.84503 7.98273 8.69365 7.99174 8.53809 7.99595L8.17773 7.99986C7.7579 7.99688 7.36603 7.96753 7.00586 7.92466L7.02148 13.7508ZM5.4375 2.50572L4.65039 2.5272C3.45296 2.57185 2.50007 3.56884 2.5 4.78697V5.49693H4.7627C4.89572 5.49693 5.02676 5.53233 5.1416 5.59947L6.32227 6.2899C6.82817 6.40014 7.4591 6.49364 8.1875 6.49888C8.97747 6.50408 9.65786 6.40522 10.1904 6.28892L11.3613 5.60044C11.4766 5.53261 11.6084 5.49693 11.7422 5.49693H13.5V3.73814H11.4424C11.2299 3.73814 11.027 3.64795 10.8848 3.49009L10.5029 3.06626C10.2882 2.82778 10.0035 2.68356 9.7041 2.65708C8.63664 2.56281 7.48088 2.5028 6.24805 2.49986C5.97448 2.49888 5.70361 2.50106 5.4375 2.50572Z" fill="black"/>
</svg>

<!-- This Source Code Form is subject to the terms of the Mozilla Public
   - License, v. 2.0. If a copy of the MPL was not distributed with this
   - file, You can obtain one at http://mozilla.org/MPL/2.0/. -->
<svg xmlns="http://www.w3.org/2000/svg" width="16" height="16" fill="context-fill" fill-opacity="context-fill-opacity" viewBox="0 0 16 16">
    <path fill-rule="evenodd" d="M6.251 1c1.28.004 2.478.065 3.585.163a2.72 2.72 0 0 1 1.781.9l.158.175H13.5V2A.75.75 0 0 1 15 2v5.5a.75.75 0 0 1-1.5 0v-.503h-1.554l-1.101.648a.8.8 0 0 1-.212.085q-.07.014-.14.029l-.014 5.996A2.25 2.25 0 0 1 8.229 16H7.77a2.25 2.25 0 0 1-2.237-2.016l-.013-.23-.016-6.204-.945-.553H1.75a.75.75 0 0 1-.75-.75v-1.46c0-2.008 1.573-3.683 3.594-3.759l.817-.022q.414-.007.84-.005m.77 12.75.005.078a.75.75 0 0 0 .745.672h.458a.75.75 0 0 0 .75-.75l.013-5.777q-.22.016-.454.023L8.178 8a11 11 0 0 1-1.172-.075zM5.438 2.507l-.788.021C3.453 2.572 2.5 3.57 2.5 4.787v.71h2.263c.133 0 .264.035.379.102l1.18.69a9.06 9.06 0 0 0 3.868 0l1.171-.689a.75.75 0 0 1 .381-.103H13.5V3.738h-2.058a.75.75 0 0 1-.557-.248l-.382-.424a1.22 1.22 0 0 0-.799-.409 40 40 0 0 0-4.267-.151" clip-rule="evenodd" />
</svg>
